X: 1
T: The Cockstep In The Dunghill
R: reel
M: 4/4
L: 1/8
K: Gmaj
f|:gfed edBA|G~B3 GEDz|B~e3 Beef|gfed ~B3z|
gfed edBA|G~B3 GED2|Beed efga|agfa ~g3z:|
eBdB ABGA|BAGA B~d3|BAGA B~d3|eBdB ~A3z|
eBdB Az GA|BAGA B~d3|Beed efga|1 agfa ~g3z:|2 agfa g2z||

composer: Vincent Broderick
